X: 1
T: Ladies Triumph  [G]
R: reel
Z: 2010 John Chambers <jc:trillian.mit.edu>
B: Gow's "Strathspey Reels", Vol.5, 1809, as "Farewell to Whiskey" (in G)
B: Raven "English Country Dance Tunes", 1984; p.149 (in A)
B: Ryan's "Mammoth Collection" (in F)
M: 2/4
L: 1/16
K: G
D2 \
| "G"D2G2 GABG | "Am"A2E2- "(D7)"E2F2 | "G"G2G2 GABc | "(D7)"d2B2- "G"B2d2 |
| "C"e2g2 "G"d2B2 | "Am"cBAG "D7"A2d2 | "G"D2G2 "D7"BAGA | "G"B2G2- G2 :|
|: Bc \
| "G"d2B2 g2d2 | "Am"cBAG "D7"A2Bc | "G"d2B2 g2d2 | "C"eg"D7"fa "G"g3d |
| "C"e2g2 "G"d2B2 | "Am"cBAG "D7"A2d2 | "G"D2G2 "D7"BAGA | "G"B2G2- G2 :|
